X:51
T:Dream lad - Pascoe
%%VWML:SBG-1-2-343-0
F:http://www.vwml.org/record/SBG/1/2/343
Z:Original Sibelius transcriptions by M. & S. Graebe
M:6/8
I:linebreak $
K:G
V:1 treble nm="P1"
V:1
 D | G2 A B2 c | d2 c B2 c | BA G F2 c | B2 A G2 D | G2 A B2 e |$ d2 c B2 c | BA G F2 G | %8
w: ||||||||
 A2 B G2 G | F2 G A2 B | c2 e d2 d | d2 ^c B2 c |$ f2 e d2 c | B2 c/ c/ d2 B | F2 c B2 c | %15
w: ||||* * * If|he's to be had, a|far- mer lad, O|
 AA G F2 c | B2 A G2 z | %17
w: that is the lad, the|lad for me.|

